resources/svg/user-add.svg

<svg xmlns="http://www.w3.org/2000/svg" viewBox="0 0 24 24" fill="currentColor"><path fill="none" stroke="currentColor" stroke-width="2" d="M5,24 L5,19 M11,24 L11,19 M1,24 L1,18 C1,13.0294373 4.13400675,11 8,11 C11.8659932,11 15,13 15,18 L15,24 M8,11 C10.7614237,11 13,8.76142375 13,6 C13,3.23857625 10.7614237,1 8,1 C5.23857625,1 3,3.23857625 3,6 C3,8.76142375 5.23857625,11 8,11 Z M16,11 L24,11 M20,7 L20,15"/></svg>

<svg viewBox="0 0 24 24"><path fill="none" stroke="currentColor" stroke-width="2" d="M5 24v-5m6 5v-5M1 24v-6c0-4.97 3.134-7 7-7s7 2 7 7v6M8 11A5 5 0 1 0 8 1a5 5 0 0 0 0 10zm8 0h8m-4-4v8"/></svg>
